X: 33452
T: Rabbits Sitting In The Bush
R: polka
M: 2/4
K: Adorian
|:eA ed|BG Bd|ed ed|BG A2|
eA ed|BG B/c/d|ef gd|BA A2:|
|:ea ed|bg/b/ ag|ef gd|ba a2|
ae dB|bg/b/ ag|ef gd|BA A2:|

